!!!OTL: HOERT IHR HERRN UND LASST EUCH SAGEN
!!!ARE: Europa, Mitteleuropa, Deutschland, Norddeutschland, Havel, Zehdenick
!!!SCT: E1580
!!!YEM: Copyright 1995, estate of Helmut Schaffrath.
**kern
*ICvox
*Ivox
*M4/4
*k[b-e-a-]
*E-:
=1
{4e-
8e-
8g
4b-
4b-
=2
8b-
8a-
8f
8a-
4g
4e-}
=3
{4ee-
4ee-
4.ff
8dd
=4
8ff
8ee-
8dd
8cc
4b-
4f}
=5
{4.b-
8g
4.ee-
8b-
=6
8b-
8a-
8g
8a-
2f}
=7
{4ff
4dd
4ee-
4g
=8
4a-
4b-
2e-}
=9
{4e-
8e-
8g
4b-
4b-
=10
8b-
8a-
8f
8a-
4g
4e-}
=11
{4ee-
4ee-
4.ff
8dd
=12
8ff
8ee-
8dd
8cc
4b-
4f}
=13
{4.b-
8g
4.ee-
8b-
=14
8b-
8a-
8g
8a-
2f}
=15
{4ff
4dd
4ee-
4g
=16
4a-
4b-
2e-}
==
!!!AGN: Staende - Lied, Nachtwaechter
!!!ONB: ESAC (Essen Associative Code) Database: ERK3
!!!AMT: simple quadruple
!!!AIN: vox
!!!EED: Helmut Schaffrath
!!!EEV: 1.0
*-
